src/assets/IconVotingSuccess.svg

<svg width="57" height="56" viewBox="0 0 57 56" fill="none" xmlns="http://www.w3.org/2000/svg">
<path d="M55.5673 28C55.5673 42.8941 43.4932 54.9682 28.5991 54.9682C13.705 54.9682 1.63096 42.8941 1.63096 28C1.63096 13.1059 13.705 1.03184 28.5991 1.03184C43.4932 1.03184 55.5673 13.1059 55.5673 28Z" stroke="#FFD9B8" stroke-width="1.8"/>
<path opacity="0.7" d="M24.856 36.6591C24.856 37.573 25.6047 38.3221 26.5193 38.3221H35.1431L34.0367 43.5994C33.9031 44.2196 34.0943 44.8653 34.5433 45.3111L35.8658 46.6351L44.0799 38.4213C44.5306 37.9719 44.8119 37.3501 44.8119 36.6591V25.8534C44.8119 24.4732 43.698 23.3589 42.3178 23.3589H31.0919C30.0619 23.3589 29.1735 23.9826 28.7972 24.8796L25.031 33.6777C24.923 33.9586 24.856 34.2582 24.856 34.5822V36.661L24.856 36.6591Z" fill="url(#paint0_linear)"/>
<path d="M32.8377 21.3642C32.8326 20.4443 32.0894 19.7012 31.1744 19.7012H22.5506L23.657 14.4239C23.7905 13.8037 23.5994 13.158 23.1504 12.7122L21.8279 11.3882L13.6138 19.602C13.1631 20.0514 12.8818 20.6751 12.8818 21.3642V32.1699C12.8818 33.5501 13.9957 34.6644 15.3759 34.6644H26.6017C27.6318 34.6644 28.5202 34.0407 28.8965 33.1437L32.6627 24.3494C32.7707 24.0666 32.8377 23.7669 32.8377 23.443V21.3642Z" fill="url(#paint1_linear)"/>
<defs>
<linearGradient id="paint0_linear" x1="23.3131" y1="44.6449" x2="45.1042" y2="29.8856" gradientUnits="userSpaceOnUse">
<stop stop-color="#FFBE94"/>
<stop offset="1" stop-color="#FFE0B1"/>
</linearGradient>
<linearGradient id="paint1_linear" x1="-16.9651" y1="60.5237" x2="89.4304" y2="-13.557" gradientUnits="userSpaceOnUse">
<stop stop-color="#FFD9A1"/>
<stop offset="1" stop-color="#FFAE8D"/>
</linearGradient>
</defs>
</svg>

<svg width="57" height="56" fill="none" xmlns="http://www.w3.org/2000/svg"><path d="M55.567 28c0 14.894-12.074 26.968-26.968 26.968S1.631 42.894 1.631 28 13.705 1.032 28.599 1.032 55.567 13.106 55.567 28z" stroke="#FFD9B8" stroke-width="1.8"/><path opacity=".7" d="M24.856 36.66c0 .913.749 1.662 1.663 1.662h8.624L34.037 43.6a1.86 1.86 0 00.506 1.712l1.323 1.324 8.214-8.214a2.48 2.48 0 00.732-1.762V25.853a2.49 2.49 0 00-2.494-2.494H31.092c-1.03 0-1.918.624-2.295 1.52l-3.766 8.799c-.108.28-.175.58-.175.904v2.079-.002z" fill="url(#paint0_linear)"/><path d="M32.838 21.364a1.668 1.668 0 00-1.664-1.663h-8.623l1.106-5.277a1.86 1.86 0 00-.507-1.712l-1.322-1.324-8.214 8.214a2.483 2.483 0 00-.732 1.762V32.17a2.49 2.49 0 002.494 2.494h11.226c1.03 0 1.918-.623 2.294-1.52l3.767-8.795c.108-.282.175-.582.175-.906v-2.079z" fill="url(#paint1_linear)"/><defs><linearGradient id="paint0_linear" x1="23.313" y1="44.645" x2="45.104" y2="29.886" gradientUnits="userSpaceOnUse"><stop stop-color="#FFBE94"/><stop offset="1" stop-color="#FFE0B1"/></linearGradient><linearGradient id="paint1_linear" x1="-16.965" y1="60.524" x2="89.43" y2="-13.557" gradientUnits="userSpaceOnUse"><stop stop-color="#FFD9A1"/><stop offset="1" stop-color="#FFAE8D"/></linearGradient></defs></svg>
